shared/images/iconfont/kb-iconfont-upload-16.svg

<?xml version="1.0" encoding="UTF-8"?>
<svg width="16px" height="16px" viewBox="0 0 16 16" version="1.1" xmlns="http://www.w3.org/2000/svg" xmlns:xlink="http://www.w3.org/1999/xlink">
    <!-- Generator: sketchtool 49.2 (51160) - http://www.bohemiancoding.com/sketch -->
    <title>F5382075-47C4-47B8-BDFB-7AC67E7269D6</title>
    <desc>Created with sketchtool.</desc>
    <defs></defs>
    <g id="Colors,-icons" stroke="none" stroke-width="1" fill="none" fill-rule="evenodd">
        <g id="Icons-2" transform="translate(-431.000000, -425.000000)">
            <g id="kb-iconfont-upload-16" transform="translate(431.000000, 425.000000)">
                <g id="icon">
                    <rect id="icon-area" fill="#D8D8D8" opacity="0" x="0" y="0" width="16" height="16"></rect>
                    <path d="M0,8 C0,3.581722 3.59071231,0 8,0 L8,0 C12.418278,0 16,3.59071231 16,8 L16,8 C16,12.418278 12.4092877,16 8,16 L8,16 C3.581722,16 0,12.4092877 0,8 L0,8 Z M5.31024109,8 L6.87774109,8 L6.87774109,11.375 C6.87774109,11.9963203 7.38142075,12.5 8.00274109,12.5 C8.62406143,12.5 9.12774109,11.9963203 9.12774109,11.375 L9.12774109,8 L10.6952411,8 C10.9770165,7.99077697 11.2265319,7.81542716 11.3306754,7.55344128 C11.4348189,7.29145539 11.3737846,6.99265728 11.1752411,6.7925 L8.00274109,3.5 L4.83024109,6.7925 C4.63169757,6.99265728 4.57066333,7.29145539 4.67480679,7.55344128 C4.77895024,7.81542716 5.02846565,7.99077697 5.31024109,8 Z" id="Combined-Shape" fill="#000000"></path>
                </g>
            </g>
        </g>
    </g>
</svg>

<svg xmlns="http://www.w3.org/2000/svg" width="16" height="16" viewBox="0 0 16 16">
    <path fill="#000" fill-rule="evenodd" d="M0 8c0-4.418 3.59-8 8-8 4.418 0 8 3.59 8 8 0 4.418-3.59 8-8 8-4.418 0-8-3.59-8-8zm5.31 0h1.568v3.375a1.125 1.125 0 0 0 2.25 0V8h1.567a.709.709 0 0 0 .48-1.207L8.003 3.5 4.83 6.793A.709.709 0 0 0 5.31 8z"/>
</svg>
